X: 1
T: the High Drive (4 parts)
C: Gordon Duncan
R: reel
Z: 2007 John Chambers <jc:trillian.mit.edu>
S: Page from Concord Slow Scottish Session collection
N: Parts C,D from Duncan book and Beaton "Tap Sessions"
M: C|
L: 1/8
K: D
"A"[|] Ac |\
|: "D"d3e fedA | "G"~B2gB BAGB | "D"GA~A2 fedf |"A7"eAce [1,3 afge :|[2,4 "D"d2 :|
"B"|: efg \
|   "D"a3"(#)"g ad~d2 | "G"AB~B2 gBdB | "D"GA~A2 fedf | "A7"eAce afge |
|[1 "D"a3"(#)"g ad~d2 | "G"AB~B2 gBdB | "D"GA~A2 fedf | "A7"edc{d}e "D"d :|
|[2 "D"d3e fedA | "G"~B2gB BAGB | "D"GA~A2 fedf | "A7"edc{d}e "D"d2y2 |]
%%sep 1 1 400
%%sep 1 9 400
"C"|: fe |:\
"D"dAeA fA~A2 | "G"gBBA Bgag | "D"fA~A2 afdf |1,3 "A7"eA~A2 afge :|2,4 "A7"edce "D"d2 :|
"D"|: efg | "D"adda ~d2ad | "G"gddg ~d2gd | "D"fddf  ~d2fd | "A7"edde "(D)"d
   [1 ded | "D"adda ~d2ad | "G"gddg ~d2gd | "D"fA~A2 afdf | "A7"edce "D"d :|
   [2 efg | "D"adda ~d2ad | "G"gBdg  BdGB | "D"GA~A2 fede | "A7"edce "D"d2 |]

%%sep 1 1 500

